X:1
T:Title
%%score { 1 | ( 2 3 ) }
L:1/8
Q:1/4=100
M:6/8
K:C
V:1 treble nm="Grand Piano"
V:2 bass 
V:3 bass 
V:1
 [EG][_E^F][=EG] [=FA]2 [FB] | [Ec]3 [EG]2 [CE] | [EG]2 [EG] [DF]2 [B,D] | %3
w: Ira~D.~Sankey * * * *|||
[M:5/8] [CE]-[CE]- [CE]3 |[M:1/8] [EG] |[M:3/4] [FA]2 [FA] [FB]2 [FB] | [Ec]3 [EG]2 [Ec] | %7
w: ||||
 [CEc]2 [CEc] [D^FB]2 [Fc] |[M:5/8] d-d- d3 |[M:1/8] G |[M:3/4] GA [GB] [Gc]2 [Fd] | %11
w: ||||
 [Ec]3 [EG]2 [EG] | [Ec]2 G d2 G |[M:5/8] [Ge]-[Ge]- [Ge]3 |[M:1/8] [Ge] |[M:3/4] [^Ge]2 d c2 B | %16
w: |||||
 d3 c2 A | G2 c [DFc]2 [FB] | [Ec]6 |] %19
w: |||
V:2
 [C,C][C,C][C,C] [F,C]2 [D,G,] | [C,G,]3 [C,C]2 [C,G,] | [G,,G,]2 [G,,G,] [G,,G,]2 [G,,G,] | %3
[M:5/8] [C,G,]-[C,G,]- [C,G,]3 |[M:1/8] [C,C] |[M:3/4] [F,C]2 [F,C] [D,G,]2 [D,G,] | %6
 [C,G,]3 [C,C]2 [C,C] | A,,2 A,, D,2 [D,A,] |[M:5/8][K:treble] [G,B,G]-[G,B,G]- [G,B,G]3 | %9
[M:1/8] [G,B,] |[M:3/4] .B,2[K:bass] z2 z2 | [C,C]3 [C,C]2 [C,C] | %12
 [C,G,]2 [E,C][K:treble] [G,B,G]2 [G,B,] |[M:5/8][K:bass] [C,C]-[C,C]- [C,C]3 |[M:1/8] [C,C] | %15
[M:3/4] [E,B,]2 [^G,B,E] [A,E]2 [E,G,D] | [F,A,F]3 [F,A,F]2 [^F,C_E] | %17
 [G,CE]2 [G,EG][K:bass] G,,2 [G,,G,] | [C,G,]6 |] %19
V:3
 x6 | x6 | x6 |[M:5/8] x5 |[M:1/8] x |[M:3/4] x6 | x6 | x6 |[M:5/8][K:treble] x5 |[M:1/8] x | %10
[M:3/4] G,-[G,C^F][K:bass] [F,D] [E,C]2 [G,B,] | x6 | x3[K:treble] x3 |[M:5/8][K:bass] x5 | %14
[M:1/8] x |[M:3/4] x6 | x6 | x3[K:bass] x3 | x6 |] %19

